X:1
T:The Blood of the Crucified One
T:The Blood of the Crucified One
T:Charles Hutchinson Gabriel
T:James T. McKim, 1910
T:Public Domain Courtesy of the Cyber Hymnal™
T:Public Domain Courtesy of the Cyber Hymnal™
T:Public Domain Courtesy of the Cyber Hymnal™
C:Charles Hutchinson Gabriel
Z:Public Domain
Z:Courtesy of the Cyber Hymnal™
%%score ( 1 2 ) ( 3 4 )
L:1/8
Q:1/4=95
M:4/4
K:Eb
V:1 treble 
V:2 treble 
V:3 bass 
V:4 bass 
V:1
 E[EG] | [GB]2 [GB]>[GB] [GB]2 [EG][GB] | [Ge]2 [Ae]>[Ac] [GB]2 [EG][FA] | %3
w: 1.~There is|joy in the heart of the|one who is saved By the|
w: 2.~Oh, what|joy it will be my Re-|deem- er to see, For I|
w: 3.~There’s no|love that com- pares with God’s|won- der- ful love, And Christ|
w: 4.~Then re-|joice, O my soul, in a|dear Sav- ior’s love, From the|
 [GB]2 [GB]>[GB] [Ac][GB] [EG]2 | [DF]6 E[EG] | [GB]2 [GB]>[GB] [GB]2 [EG][GB] | %6
w: blood of the Cru- ci- fied|One; There is|peace in the soul driv- ing|
w: trust in the Cru- ci- fied|One; I shall|sing with the an- gels the|
w: Je- sus for all doth a-|tone; God looked|down from on high, from His|
w: bond- age of sin I am|free; It is|glo- ry to walk with my|
 [Ge]2 [Ae]>[Ac] [GB]2 [Ge][Ge] | [Fd]2 [DB]>[DB] [Ec][DB] [E=A]2 | [DB]6 [Ac][Ad] | %9
w: all doubts a- way, When we|trust in the Cru- ci- fied|One; And we|
w: song of the Lamb, At the|last when life’s jour- ney is|done; For re-|
w: throne in the sky, And, in|pi- ty be- hold- ing His|own, Saw His|
w: Sav- ior each day, And to|feel there is par- don for|me. Oh, the|
 [Ge]2 [Ge]>[Ge] [Ge]2 [GB][GB] | [Bd]2 [Ac]>[Ac] [Ac]2 [Ae]>[Ae] | %11
w: love all the world, when our|will is the will Of the|
w: demp- tion’s com- plete, and God’s|grace make me whole By the|
w: sheep gone a- stray— turned earth’s|dark- ness to day, For our|
w: joy and the peace that o-|be- dience hath won! Ne- ver|
 [Ad]2 [Ac]>[Ac] [GB]2 [FA][FA] | [EG]6 [EG][EG] | [Ec]2 [Ec]>[Ec] [Ec]2 [EF][EF] | %14
w: Christ who for sin- ners hath|died: Then to|Hea- ven look up, trust in|
w: death of His in- fin- ite|Son; When the|con- flict is o’er, on that|
w: Sav- ior is great- er than|all, And His|mer- cy is free, there is|
w: tongue half the trans- port can|sing; Blest the|soul that is free, glad in|
 [EB]2 [DB]>[DB] [EB]2 [Ec][Fd] | [Ee]2 [EB][EA] [EG][EG] [DF]2 | E6 ||"^Refrain" [Ge]>[Ge] | %18
w: God and o- bey, As in|Je- sus you sweet- ly con-|fide.||
w: heav- en- ly shore I shall|wor- ship the Cru- ci- fied|One.|Oh the|
w: par- don for me— Oh, He|hears ev- ery pen- i- tent’s|call!||
w: God’s li- ber- ty, Shout the|glo- ry of Je- sus our|king!||
 [Ad]6 [Ac]>[Ac] | [GB]>[GB] [GB]2 [EG]2 [Ge]2 | [Fd]2 [Ff]2 [Ff]2 [Fd]2 | [Ec]4 [DB]2 [Ac][Ad] | %22
w: ||||
w: blood of the|Cru- ci- fied One, The|pre- cious blood of|Je- sus! Mak- ing|
w: ||||
w: ||||
 [Ge]2 [Ge]>[Ge] [Ge]2 [Gc][GB] | [Bd]2 [Ac]>[Ac] [Ac]2 [Ae]2 | [GB]3 [Ac] [GB]2 [EG]2 | %25
w: |||
w: per- fect- ly whole, ’Tis the|hope of the soul, The|pre- cious blood of|
w: |||
w: |||
 [DF]4 E2 |] %26
w: |
w: Je- sus.|
w: |
w: |
V:2
 E x | x8 | x8 | x8 | x6 E x | x8 | x8 | x8 | x8 | x8 | x8 | x8 | x8 | x8 | x8 | x8 | E6 || x2 | %18
 x8 | x8 | x8 | x8 | x8 | x8 | x8 | x4 E2 |] %26
V:3
 [E,G,][E,B,] | [E,E]2 [E,E]>[E,E] [E,E]2 [E,B,][E,E] | [E,B,]2 [A,C]>[A,E] [E,E]2 [E,B,][E,B,] | %3
w: ~ ~|~ ~ ~ ~ ~ ~|~ ~ ~ ~ ~ ~|
 [E,E]2 [E,E]>[E,E] [E,E][E,E] [E,B,]2 | [B,,B,]6 [E,G,][E,B,] | %5
w: ~ ~ ~ ~ ~ ~|~ ~ ~|
 [E,E]2 [E,E]>[E,E] [E,E]2 [E,B,][E,E] | [E,B,]2 [A,C]>[A,E] [E,E]2 [E,B,][E,B,] | %7
w: ~ ~ ~ ~ ~ ~|~ ~ ~ ~ ~ ~|
 [F,B,]2 [F,B,]>[F,B,] [F,=A,][F,B,] [F,C]2 | [B,,B,]6 B,B, | %9
w: ~ ~ ~ ~ ~ ~|~ ~ ~|
 [E,B,]2 [E,B,]>[E,B,] [E,B,]2 [E,E][E,E] | [A,,E]2 [A,,E]>[A,,E] [A,,E]2 [A,,C]>[A,,C] | %11
w: ~ ~ ~ ~ ~ ~|~ ~ ~ ~ ~ ~|
 [B,,B,]2 [B,,B,]>[B,,B,] [B,,B,]2 [B,,B,][B,,B,] | [E,B,]6 [E,B,][E,B,] | %13
w: ~ ~ ~ ~ ~ ~|~ ~ ~|
 [A,,A,]2 [A,,A,]>[A,,A,] [A,,A,]2 [A,C][A,C] | [G,B,]2 [F,A,]>[F,A,] [E,G,]2 A,[A,B,] | %15
w: ~ ~ ~ ~ ~ ~|~ ~ ~ ~ ~ ~|
 [G,B,]2 [G,,B,][A,,C] [B,,B,][B,,B,] [B,,B,]2 | [E,G,]6 || [E,B,]>[E,B,] | %18
w: ~ ~ ~ ~ ~ ~|~|~ ~|
 [F,B,]2 [B,,B,]2 [F,B,]2 [B,,D]>[B,,D] | [E,E]>[E,E] [E,E]2 [E,B,]2 [E,B,]2 | %20
w: ~ the blood * *||
 [F,B,]2 [F,D]2 [F,D]2 [F,B,]2 | [F,=A,]4 [B,,B,]2 B,B, | %22
w: ||
 [E,B,]2 [E,B,]>[E,B,] [E,B,]2 [E,E][E,E] | [A,,E]2 [A,,E]>[A,,E] [A,,E]2 [C,E]2 | %24
w: ||
 [E,E]3 [E,E] [E,E]2 [E,B,]2 | [B,,A,]4 [E,G,]2 |] %26
w: ||
V:4
 x2 | x8 | x8 | x8 | x8 | x8 | x8 | x8 | x6 B,B, | x8 | x8 | x8 | x8 | x8 | x6 A, x | x8 | x6 || %17
 x2 | x8 | x8 | x8 | x6 B,B, | x8 | x8 | x8 | x6 |] %26

